X: 3410
Q: "Moderato."
M: 6/8
L: 1/8
K: G
[|\
d>ed g2g | a>ba d'3 |
b>ab e2e | d3- d2d |\
d>ed g>gg | a>ba d'3 | b>ab e2e | d3- d2z H|:\
bgb b3 | aea a3 | geg g2g | e3- e2z :|


